X:1
T:Dear Savior, Take Us Home
T:Dear Savior, Take Us Home
T:Robert Lowry
T:Laura Elmer, 1880
T:Public Domain Courtesy of the Cyber Hymnal™
C:Robert Lowry
Z:Public Domain
Z:Courtesy of the Cyber Hymnal™
%%score ( 1 2 ) ( 3 4 )
L:1/8
Q:1/4=93
M:3/4
K:Ab
V:1 treble 
V:2 treble 
V:3 bass 
V:4 bass 
V:1
 [CE]2 | [Ec]3 [DB] [CA][DF] | [CE]4 [CE]2 | ([DF]3 [FA]) ([EG][DF]) | [CE]4 E2 | %5
w: 1.~We|wan- dered from Thy|fold, So|safe, * so *|warm; We|
w: 2.~All|wea- ry, worn and|sore, And|sad— * so *|sad— We|
w: 3.~Now|keep us by Thy|side, No|more * to *|stray; Be|
 [EB]3 [E=A] [EB][Ec] | [EA]4 [Ec]2 | (B3 G) (FG) | E4 ||"^Refrain" [Ed]2 | [Ec]3 [DB] [DB][CA] | %11
w: shiv- ered in the|cold, The|pel- * ting *|storm.|O|take us, take us|
w: lin- ger at Thy|door; O|make * us *|glad.|||
w: Thou our friend and|guide A-|long * life’s *|way.|||
 [Fd]4 [Fd]2 | [Ec]3 [EB] [EA][Ec] | [EB]4 [Ed]2 | [Ee]3 [Ec] [DB][CA] | [FA] [Fd]3 [Fd]2 | %16
w: home. *||* Too|long, too long we’ve|wan- dered. *|
w: |||||
w: |||||
 [Fc]3 [FB] [EA][EG] | [EA]4 |] %18
w: ||
w: ||
w: ||
V:2
 x2 | x6 | x6 | x6 | x4 E2 | x6 | x6 | E4 =D2 | E4 || x2 | x6 | x6 | x6 | x6 | x6 | x6 | x6 | x4 |] %18
V:3
 [A,,A,]2 | [A,,A,]3 [A,,A,] [A,,A,][A,,A,] | [A,,A,]4 [A,,A,]2 | [D,A,]4 [D,A,]2 | %4
w: ~|~ ~ ~ ~|~ ~|~ ~|
 [A,,A,]4 [A,C]2 | [E,D]3 [E,C] [E,D][E,E] | [A,,C]4 [A,,A,]2 | (G,3 B,) (A,B,) | [E,G,]4 || %9
w: ~ ~|~ ~ ~ ~|~ ~|~ * ~ *|~|
 [E,B,]2 | A,3 [E,G,] [E,G,][F,A,] | [D,A,]4 [D,A,]2 | [A,,A,]3 [B,,G,] [C,A,][A,,A,] | %13
w: ~|~ ~ ~ ~|~ Dear|Sav- ior, take us|
 [E,G,]4 A,2 | [A,C]3 A, [E,G,][F,A,] | [D,A,] [D,A,]3 [B,,B,]2 | [C,E]3 [D,D] [E,C][E,B,] | %17
w: home; ~|~ ~ ~ ~|~ ~ Dear|Sav- ior, take us|
 [A,,C]4 |] %18
w: home.|
V:4
 x2 | x6 | x6 | x6 | x6 | x6 | x6 | B,,4 B,,2 | x4 || x2 | A,3 x3 | x6 | x6 | x4 A,2 | x3 A, x2 | %15
 x6 | x6 | x4 |] %18

